X:1
T:Da Naglschmied
C:traditionell
R:Zwiefach
%%textfont Helvetica-Narrow 10pt
%%begintext align
B:"Schule fuer boehmischen Bock", Band I, R.Lughofer, Eigenverlag, Kremsmuenster 1998
N:dort ganz in F, zweistimmig, Seite 52
%%endtext 
F:http://simonwascher.info/
Z:abc transcription Simon Wascher
M:3 4/4
L:1/4
K:G
GGB | A>Bc | d>cB | A3 |
GGB | A>Bc | d>cB | A3 |
GDBG | ddF | G3 :|
%%wordsfont Times-Italic 11pt
W:aus Simon Waschers TradArchiv
